dist/assets/images/promo-4.svg

<?xml version="1.0" encoding="UTF-8"?>
<svg width="24px" height="20px" viewBox="0 0 24 20" version="1.1" xmlns="http://www.w3.org/2000/svg" xmlns:xlink="http://www.w3.org/1999/xlink">
    <!-- Generator: Sketch 41.2 (35397) - http://www.bohemiancoding.com/sketch -->
    <title>Page 1</title>
    <desc>Created with Sketch.</desc>
    <defs></defs>
    <g id="3.-Объекты" stroke="none" stroke-width="1" fill="none" fill-rule="evenodd">
        <g id="Объекты-[Desktop-1600]" transform="translate(-1426.000000, -600.000000)" fill="#FFFFFF">
            <g id="Page-1" transform="translate(1426.000000, 600.000000)">
                <path d="M20.5819061,18.271366 L19.5482669,17.2374956 L19.7060743,16.9922207 C20.2874543,16.088648 20.6807433,15.1685779 20.9226137,14.1462452 C20.967041,13.9584273 21.0090935,13.7781541 21.0160708,13.7456427 L21.0287222,13.6865254 L22.4993212,13.6865254 C23.7272301,13.6865254 23.9699201,13.6924729 23.9699201,13.7225254 C23.9699201,13.8170753 23.8517905,14.4264904 23.7604771,14.8029877 C23.4462074,16.0988616 22.9606172,17.2623573 22.269724,18.3749317 C22.0768623,18.6854816 21.6731285,19.2696567 21.635111,19.2931313 C21.624351,19.2997933 21.1504035,18.8399895 20.5819061,18.271366" id="Fill-1"></path>
                <path d="M0.000611558669,10.2780294 C0.00611768827,10.2527475 0.0350984238,10.0842851 0.0649828371,9.90369667 C0.306748161,8.4432063 0.89554676,6.89884203 1.71249247,5.58230963 C1.93235937,5.2280049 2.26381996,4.75481401 2.29217023,4.75481401 C2.3024049,4.75481401 2.77769737,5.22193135 3.34831734,5.79284553 L4.3858655,6.83085604 L4.34295131,6.90272995 C4.31935061,6.9422606 4.22072364,7.10464939 4.12377793,7.26357058 C3.76833835,7.84633765 3.41222627,8.63337793 3.22043643,9.26006795 C3.15476217,9.47470193 3.02736462,9.97744098 2.96580946,10.2648946 L2.95315797,10.3240119 L1.471862,10.3240119 C0.0748392294,10.3240119 -0.00884553415,10.3213849 0.000611558669,10.2780294" id="Fill-3"></path>
                <path d="M21.0160539,10.2648946 C20.7430382,8.98993135 20.353532,8.02455131 19.7060364,7.01827461 L19.548187,6.77295762 L20.5992694,5.72187531 L21.6503517,4.67079299 L21.8623797,4.96970018 C22.8973219,6.42861436 23.634807,8.19969667 23.9168806,9.90369667 C23.946786,10.0842851 23.9757457,10.2527475 23.9812518,10.2780294 C23.9907089,10.3213849 23.9070242,10.3240119 22.5099804,10.3240119 L21.0287264,10.3240119 L21.0160539,10.2648946 Z" id="Fill-5"></path>
                <path d="M5.70267531,3.39224658 L4.65522872,2.34444273 L4.79637058,2.24077198 C6.12248616,1.26671243 7.55740035,0.599798249 9.1669345,0.209451489 C9.56587671,0.112694921 10.154297,8.40630469e-06 10.2605317,8.40630469e-06 C10.3079643,8.40630469e-06 10.3096665,0.0517702277 10.3096665,1.48374221 L10.3096665,2.96747601 L10.2505702,2.98014851 C9.96313765,3.04168266 9.46037758,3.16908021 9.24574361,3.23477548 C8.51185219,3.45934991 7.57833205,3.90116427 6.96738284,4.3130732 C6.88458074,4.36889107 6.80184168,4.42029562 6.78349492,4.42729387 C6.76460175,4.43452329 6.29567706,3.98543748 5.70267531,3.39224658 Z" id="Fill-7"></path>
                <path d="M16.8376939,4.20196918 C16.2509758,3.83076778 15.3922928,3.43556637 14.7361177,3.23478179 C14.5214837,3.16910753 14.0187447,3.04168897 13.7313121,2.9801338 L13.6721947,2.96748231 L13.6721947,1.48374851 C13.6721947,0.0517765324 13.673897,1.47110333e-05 13.7213296,1.47110333e-05 C13.8275853,1.47110333e-05 14.4160056,0.112701226 14.8149268,0.209436778 C16.3319706,0.57735972 17.6810774,1.18509352 18.9467517,2.07069772 L19.2694907,2.2965331 L18.2244609,3.34177303 C17.6497009,3.91668021 17.1675573,4.38655061 17.1530564,4.38592014 C17.1385345,4.38531068 16.9966151,4.3025296 16.8376939,4.20196918" id="Fill-9"></path>
            </g>
        </g>
    </g>
</svg>

<svg width="24" height="20" viewBox="0 0 24 20" xmlns="http://www.w3.org/2000/svg"><title>Page 1</title><path d="M20.582 18.271l-1.034-1.034.158-.245a8.965 8.965 0 0 0 1.217-2.846l.093-.4.013-.06h1.47c1.228 0 1.47.006 1.47.037 0 .094-.117.703-.209 1.08a12.02 12.02 0 0 1-1.49 3.572c-.193.31-.597.895-.635.918-.01.007-.485-.453-1.053-1.022M0 10.278a15 15 0 0 0 .065-.374c.242-1.46.83-3.005 1.647-4.322.22-.354.552-.827.58-.827.01 0 .486.467 1.056 1.038L4.386 6.83l-.043.072c-.024.04-.122.202-.22.36A9.604 9.604 0 0 0 3.22 9.26c-.065.215-.193.717-.254 1.005l-.013.059H1.472c-1.397 0-1.48-.003-1.471-.046m21.015-.013c-.273-1.275-.662-2.24-1.31-3.247l-.158-.245L20.6 5.722l1.05-1.052.212.299c1.035 1.459 1.773 3.23 2.055 4.934l.064.374c.01.043-.074.046-1.471.046h-1.481l-.013-.06zM5.703 3.392L4.655 2.344l.141-.103A12.056 12.056 0 0 1 9.166.209c.4-.096.988-.209 1.095-.209.047 0 .049.052.049 1.484v1.483l-.06.013c-.287.062-.79.19-1.004.255a9.584 9.584 0 0 0-2.279 1.078 1.932 1.932 0 0 1-.184.114c-.018.008-.487-.442-1.08-1.035zm11.135.81a9.738 9.738 0 0 0-2.102-.967 16.334 16.334 0 0 0-1.005-.255l-.059-.013V1.484c0-1.432.002-1.484.05-1.484.106 0 .694.113 1.093.21 1.517.367 2.866.975 4.132 1.86l.322.227-1.045 1.045c-.574.575-1.056 1.045-1.07 1.044-.015 0-.157-.083-.316-.184" fill="#FFF" fill-rule="evenodd"/></svg>
